X: 1
T: `Big Begeleiding 2
M: 4/4
L: 1/8
Q:1/4=57
K:C
V:2
z8|z8|
c/2z/2c/2z/2 c/2z2c/2[B/2B/2B/2B/2]A/2 [B/2B/2B/2]c/2[d/2d/2]z/2|e/2z/2e/2z/2 e/2z2e/2<d/2c/2<d/2e/2f/2z/2|
g/2z3/2 c/2z2a/2<g/2f/2 e/2z/2d/2z/2|c/2zB/2 A/2zG/2 F/2zG/2 A/2z/2B/2z/2|[c/2c/2]z/2c/2z/2 c/2z2c/2<B/2A/2<B/2c/2d/2z/2|e/2z/2e/2z/2 e/2z2e/2<d/2c/2<d/2e/2f/2z/2|
g/2z3/2 c/2z2a/2<g/2f/2 e/2z/2d/2z/2|c/2zB/2 A/2zG/2 F/2zG/2 A/2z/2B/2z/2|[c/2c/2]z/2c/2z/2 c/2z2c/2<B/2A/2<B/2c/2d/2z/2|e/2z/2e/2z/2 e/2z2e/2<d/2c/2<d/2e/2f/2z/2|
g/2z3/2 c/2z2a/2<g/2f/2 e/2z/2d/2z/2|c/2zB/2 A/2zG/2 F/2zG/2 A/2z/2B/2z/2|
